src/svg/28/target_outline_28.svg

<svg height="28" viewBox="0 0 28 28" width="28" xmlns="http://www.w3.org/2000/svg"><g fill="none" fill-rule="evenodd" transform=""><path d="m0 0h28v28h-28z"/><path d="m14 2c.5522847 0 1 .44771525 1 1l.0010997 1.04948449c4.7238661.46953909 8.4804393 4.22641213 8.949515 8.95041461l1.0493853.0001009c.5522847 0 1 .4477153 1 1s-.4477153 1-1 1l-1.0494845.0010997c-.469506 4.7235332-4.2258826 8.4799098-8.9494158 8.9494158l-.0010997 1.0494845c0 .5522847-.4477153 1-1 1s-1-.4477153-1-1l-.0001009-1.0493853c-4.72400248-.4690757-8.48087552-4.2256489-8.95041461-8.949515l-1.04948449-.0010997c-.55228475 0-1-.4477153-1-1s.44771525-1 1-1l1.04938526-.0001009c.46910878-4.72433542 4.22617842-8.48140506 8.95051384-8.95051384l.0001009-1.04938526c0-.55228475.4477153-1 1-1zm1.0009551 4.06201291-.0009551.93798709c0 .55228475-.4477153 1-1 1s-1-.44771525-1-1l.0000487-.93811232c-3.61875653.45123002-6.486931 3.31940449-6.93816102 6.93816102l.93811232-.0000487c.55228475 0 1 .4477153 1 1s-.44771525 1-1 1l-.93798709.0009551c.4516352 3.6182831 3.31961386 6.4859689 6.93803579 6.9371572l-.0000487-.9381123c0-.5522847.4477153-1 1-1s1 .4477153 1 1l.0009551.9379871c3.6179485-.4515934 6.4854386-3.3190835 6.937032-6.937032l-.9379871-.0009551c-.5522847 0-1-.4477153-1-1s.4477153-1 1-1l.9381123.0000487c-.4511883-3.61842193-3.3188741-6.48640059-6.9371572-6.93803579zm-1.0009551 5.93798709c1.1045695 0 2 .8954305 2 2s-.8954305 2-2 2-2-.8954305-2-2 .8954305-2 2-2z" fill="currentColor" fill-rule="nonzero"/></g></svg>

<?xml version="1.0" encoding="UTF-8"?>
<svg width="28px" height="28px" viewBox="0 0 28 28" version="1.1" xmlns="http://www.w3.org/2000/svg" xmlns:xlink="http://www.w3.org/1999/xlink">
    <!-- Generator: Sketch 63.1 (92452) - https://sketch.com -->
    <title>target_outline_28</title>
    <desc>Created with Sketch.</desc>
    <g id="Page-1" stroke="none" stroke-width="1" fill="none" fill-rule="evenodd">
        <g id="target_outline_28">
            <rect x="0" y="0" width="28" height="28"></rect>
            <path d="M14,2 C14.5522847,2 15,2.44771525 15,3 L15.0010997,4.04948449 C19.7249658,4.51902358 23.481539,8.27589662 23.9506147,12.9998991 L25,13 C25.5522847,13 26,13.4477153 26,14 C26,14.5522847 25.5522847,15 25,15 L23.9505155,15.0010997 C23.4810095,19.7246329 19.7246329,23.4810095 15.0010997,23.9505155 L15,25 C15,25.5522847 14.5522847,26 14,26 C13.4477153,26 13,25.5522847 13,25 L12.9998991,23.9506147 C8.27589662,23.481539 4.51902358,19.7249658 4.04948449,15.0010997 L3,15 C2.44771525,15 2,14.5522847 2,14 C2,13.4477153 2.44771525,13 3,13 L4.04938526,12.9998991 C4.51849404,8.27556368 8.27556368,4.51849404 12.9998991,4.04938526 L13,3 C13,2.44771525 13.4477153,2 14,2 Z M15.0009551,6.06201291 L15,7 C15,7.55228475 14.5522847,8 14,8 C13.4477153,8 13,7.55228475 13,7 L13.0000487,6.06188768 C9.38129217,6.5131177 6.5131177,9.38129217 6.06188768,13.0000487 L7,13 C7.55228475,13 8,13.4477153 8,14 C8,14.5522847 7.55228475,15 7,15 L6.06201291,15.0009551 C6.51364811,18.6192382 9.38162677,21.486924 13.0000487,21.9381123 L13,21 C13,20.4477153 13.4477153,20 14,20 C14.5522847,20 15,20.4477153 15,21 L15.0009551,21.9379871 C18.6189036,21.4863937 21.4863937,18.6189036 21.9379871,15.0009551 L21,15 C20.4477153,15 20,14.5522847 20,14 C20,13.4477153 20.4477153,13 21,13 L21.9381123,13.0000487 C21.486924,9.38162677 18.6192382,6.51364811 15.0009551,6.06201291 Z M14,12 C15.1045695,12 16,12.8954305 16,14 C16,15.1045695 15.1045695,16 14,16 C12.8954305,16 12,15.1045695 12,14 C12,12.8954305 12.8954305,12 14,12 Z" id="↳-Icon-Color" fill="currentColor" fill-rule="nonzero"></path>
        </g>
    </g>
</svg>
